X: 1
T: String Quartet in G Minor opus 20 no 3 mvt 3
C: Franz Joseph Haydn
%%abc-version 2.0
%%abcx-abcm2ps-target-version 5.9.1 (29 Sep 2008)
%%abc-creator hum2abc beta
%%abcx-conversion-date 2021/02/14 14:38:12
%%abc-copyright Copyright (c) 1994, 2000 Center for Computer Assisted Research in the Humanities
%%abc-edited-by Frances Bennion
%%abcx-initial-encoding-date 1997/04/15
%%gracespace 0 6 6
%%humdrum-veritas 3933057507
%%humdrum-veritas-data 3677573718
%%linebreak <none>
%%barnumbers 0
L: 1/16
M: 3/4
N: Derived from op20n3-03.krn
Q: "Poco adagio"
%%staves [1 2 3 4]
V: 1
V: 2
V: 3 clef=alto
V: 4 clef=bass
K: G
[V:1]G4 B4 d4 [I:setbarnb2]|
[V:2]B,8 B4 |
[V:3]D12- |
[V:4]G,8 G,4 |
[V:1]d2c2 A2c2 B4 |
[V:2]A8 B4 |
[V:3]D12 |
[V:4]F,8 G,4 |
[V:1]e4 f4 g3B |
[V:2]G4 A4 G4 |
[V:3]z4 d7 G |
[V:4]C8 B,4 |
[V:1]c4 B4 z4 |
[V:2]D4 D4 z4 |
[V:3]A4 G4 z4 |
[V:4]F,4 G,4 z4 |
[V:1]A4 c4 e4 |
[V:2]E8 B4 |
[V:3]E4 C4 B,3C |
[V:4]C4 A,4 G,4 |
[V:1]d4 c4 B2g2 |
[V:2]A4 F4 G2d2 |
[V:3]D4 A4 G4- |
[V:4]F,4 D,4 E,2B,,2 |
[V:1]e2dc B4 dcBA |
[V:2]c2BA G4 BAGF |
[V:3]G4 D4 D4 |
[V:4]C,4 D,4 D,4 |
[V:1]A4 B2z6 |
[V:2]F4 G2z6 |
[V:3]D4 z8 |
[V:4]G,4 >G,4 D,2B,,2 |
[V:1]G,4 B,4 D4 |
[V:2]D12- |
[V:3]B,12 |
[V:4]G,,8 G,,4 |
[V:1]D2C2 A,2C2 B,4 |
[V:2]D12 |
[V:3]A,8 B,4 |
[V:4]F,,8 G,,4 |
[V:1]E4 F4 G>AB3/B,/ |
[V:2]z4 D7 G, |
[V:3]G,4 A,4 G,4 |
[V:4]C,8 B,,4 |
[V:1]C4 B,4 z4 |
[V:2]A,4 G,4 z4 |
[V:3]D,4 D,4 z4 |
[V:4]F,,4 G,,4 z4 |
[V:1]b12 |
[V:2]g12 |
[V:3]d12- |
[V:4]zF,G,D, C,B,,A,,G,, F,,G,,A,,G,, |
[V:1]a12 |
[V:2]f12 |
[V:3]d12 |
[V:4]z^CDA, G,F,E,D, ^C,D,E,D, |
[V:1]g12 |
[V:2]e12 |
[V:3]A12 |
[V:4]z^G,A,E, D,^C,B,,A,, ^G,,A,,B,,A,, |
[V:1]f12 |
[V:2]d12 |
[V:3]A12 |
[V:4]z^CDA, G,F,E,D, ^C,D,E,D, |
[V:1]e4 g6 e2 |
[V:2]B12 |
[V:3]G4 B8 |
[V:4]zF,G,^D, E,E,,G,,B,, E,F,G,^G, |
[V:1]^c8 z4 |
[V:2]E8 z4 |
[V:3]A8 z4 |
[V:4]z^G,A,E, D,^C,B,,A,, ^G,,A,,B,,A,, |
[V:1]A4 g4 f4 |
[V:2]A12- |
[V:3]z4 ^C,4 D,4 |
[V:4]A,^CEC ECEC A,DFD |
[V:1]A4 ^c'4 d'4 |
[V:2]A12 |
[V:3]z4 A,4 D4 |
[V:4]A,EGE GEGE A,DFD |
[V:1]A4 g4 f4 |
[V:2]A12- |
[V:3]z4 ^C,4 D,4 |
[V:4]A,^CEC ECEC A,DFD |
[V:1]A4 ^c'4 d'4 |
[V:2]A12 |
[V:3]z4 A,4 D4 |
[V:4]A,EGE GEGE A,DFD |
[V:1]z^abf g^deB AGFE |
[V:2]B2>^d2 e4 z4 |
[V:3]G,4 z8 |
[V:4]G,4 z8 |
[V:1]z^gae f^cd^c' d'2z2 |
[V:2]A2>^c2 d4 z4 |
[V:3]F,4 z8 |
[V:4]F,4 z8 |
[V:1]z^A,B,g A4 e3d/e/ |
[V:2]z8 ^c4 |
[V:3]z8 G4 |
[V:4]G,4 A,4 A,,4 |
[V:1]d'8 ^c'ba^g |
[V:2]def^c d^ABF ^GBcd |
[V:3]F8 E4 |
[V:4]B,,12 |
[V:1]^g4 (3abg(3abg (3abg(3abg |
[V:2]d4 ^c2z6 |
[V:3]E4- E2z6 |
[V:4]A,,4- A,,2z6 |
[V:1]a4 >a4 ^c'2e'2 |
[V:2]z12 |
[V:3]z12 |
[V:4]z12 |
[V:1](3:2:2g'4-g'/f'e' d'^c'ba g|
[V:2]z4 e8 |
[V:3]z4 A8- |
[V:4]z4 ^C8 |
[V:1]f12 |
[V:2]d12 |
[V:3]A12 |
[V:4]z^CDA, G,F,E,D, ^C,D,E,D, |
[V:1]d'12 |
[V:2]f12 |
[V:3]B8 B4 |
[V:4]z^A,B,F, E,D,^C,B,, ^A,,B,,C,B,, |
[V:1]b12 |
[V:2]g12 |
[V:3]G8 e4 |
[V:4]zG,A,B, ^CDEF GFED |
[V:1]a8- a^c'd'b |
[V:2]gfed ^cBAG F2f2 |
[V:3]ed^cB AGFE D2d2 |
[V:4]^C8 D4 |
[V:1]a8- (3ab^c'(3d'c'b |
[V:2]gfed ^cBAG F2f2 |
[V:3]ed^cB AGFE D2d2 |
[V:4]^C8 D4 |
[V:1]a8 add'a |
[V:2]g8 f2d2 |
[V:3]e8 d2F2 |
[V:4]^CDEF GAB^c d2d2 |
[V:1]bdd'b afed ^cdd'a |
[V:2]G4 z8 |
[V:3]G4 F4 z2F2 |
[V:4]d12- |
[V:1]bdd'b afed ^cdaA |
[V:2]z8 z2F2 |
[V:3]G4 F4 z2F2 |
[V:4]d8 z2F,2 |
[V:1]^ABc^c de=f^f g^ga^a |
[V:2]G4 z8 |
[V:3]G4 z8 |
[V:4]G,4 z8 |
[V:1]b4 z4 [G,3B3][G,B] |
[V:2]z12 |
[V:3]z12 |
[V:4]z12 |
[V:1][G,4B4] z4 (3G,^CE(3GEC |
[V:2]z8 ^C3E |
[V:3]z8 G,4 |
[V:4]z8 A,,4 |
[V:1]DDDD FDDD (3G,^CE(3GEC |
[V:2]D4 z4 ^C3E |
[V:3]F,4 z4 G,4 |
[V:4]D,4 z4 A,,4 |
[V:1]DDDD FDDD (3G,^CE(3GEC |
[V:2]D4 z4 ^C3E |
[V:3]F,4 z4 G,4 |
[V:4]D,4 z4 A,,4 |
[V:1]^C4 D4 z4 |
[V:2]E4 D4 z4 |
[V:3]G,4 F,4 z4 |
[V:4]D,,8 z4 |
[V:1]z12 |
[V:2]z4 A,4 F4 |
[V:3]D4 F4 A4 |
[V:4]D,8 D,4 |
[V:1]z12 |
[V:2][E8A,8] F4 |
[V:3]A2G2 E2G2 F4 |
[V:4]^C,8 D,4 |
[V:1]z12 |
[V:2]D4 E4 A,4 |
[V:3]B4 ^c4 d>ef3/F/ |
[V:4]G,8 F,4 |
[V:1]z12 |
[V:2]A,4 A,4 z4 |
[V:3]G4 F4 z4 |
[V:4]^C,4 D,4 z4 |
[V:1]d12 |
[V:2]=F12 |
[V:3]A12- |
[V:4]z^CDA, G,=F,E,D, ^C,D,E,D, |
[V:1]=f12 |
[V:2]d12- |
[V:3]A12 |
[V:4]z^CDE =FGFE D=CB,A, |
[V:1]e4 z8 |
[V:2]d4 z8 |
[V:3][B4E4] z8 |
[V:4]^G,4 z8 |
[V:1]z12 |
[V:2]C8 C4 |
[V:3]A,8 A,4 |
[V:4]A,4 C4 E4 |
[V:1]z12 |
[V:2]B,8 C4 |
[V:3]^G,8 A,4 |
[V:4]E2D2 B,2D2 C4 |
[V:1]z12 |
[V:2]A,4 A,4 z4 |
[V:3]D,4 C,4 z4 |
[V:4]=F4 E4 DCB,A, |
[V:1]z12 |
[V:2]^G,4 A,4 z4 |
[V:3]E,4 A,4 z4 |
[V:4]B,3C/D/ C4 z4 |
[V:1]z^gae dcBA ^GABA |
[V:2]E12 |
[V:3]C12 |
[V:4]A,12 |
[V:1]z^gae d^cBA ^GABA |
[V:2]E12 |
[V:3]^C12 |
[V:4]G,12 |
[V:1]z^a^c'e g^ce^A cGFE |
[V:2]E12 |
[V:3]^C12 |
[V:4]F,12 |
[V:1]z^abf ed^cB ^ABcB |
[V:2]D4 F8 |
[V:3]D12 |
[V:4]B,12 |
[V:1]z^abf e^d^cB ^ABcB |
[V:2]F12 |
[V:3]^D12 |
[V:4]A,12 |
[V:1]z^abf g^deB AGFE |
[V:2]E12 |
[V:3]B,12 |
[V:4]G,12 |
[V:1]zbd'b a^gb=f edcB |
[V:2]=F12 |
[V:3]D12 |
[V:4]^G,12 |
[V:1]z^gae dcBA ^GABA |
[V:2]E12 |
[V:3]C12 |
[V:4]A,12 |
[V:1]zbc'^g ae=f^d ecBA |
[V:2]^D12 |
[V:3]A,12 |
[V:4]=F,12 |
[V:1]^G^deB AGFE ^DEGB |
[V:2]E4 z8 |
[V:3]B,4 z8 |
[V:4]E,4 z8 |
[V:1]e4 z8 |
[V:2]z12 |
[V:3]zE,^G,B, E^DE=F GFE=D |
[V:4]zE,,^G,,B,, E,^D,E,=F, G,F,E,=D, |
[V:1]c4 e4 g4 |
[V:2][G,12E12] |
[V:3]C8 C4 |
[V:4]C,8 C,4 |
[V:1]g2=f2 d2f2 e4 |
[V:2]D8 E4 |
[V:3]G12 |
[V:4]B,,8 C,4 |
[V:1]a4 b4 c'>d'e'3/e/ |
[V:2]C4 D4 G,4 |
[V:3]=F4 G7 C |
[V:4]=F,8 E,4 |
[V:1]=f4 e4 z4 |
[V:2]G,4 G,4 z4 |
[V:3]D4 C4 z4 |
[V:4]B,,4 C,4 z4 |
[V:1]z12 |
[V:2]CEGE GEGE GEGE |
[V:3]C12 |
[V:4]C4 E4 G4 |
[V:1]z12 |
[V:2]_B,DGD GDGD GDGD |
[V:3]_B,2B,2 B,2B,2 B,2B,2 |
[V:4]G4 >=F4 E2D2 |
[V:1]z^ced c_BAG =FED^C |
[V:2]A,EGE GEGE GEGE |
[V:3]A,2A,2 A,2A,2 A,2A,2 |
[V:4]^C4 >E4 =F2G2 |
[V:1]z^c'd'a g=fed ^cded |
[V:2]A,D=FD FDFD FDFD |
[V:3]D,2D,2 D,2D,2 D,2D,2 |
[V:4]=F2ED D4 z4 |
[V:1]z12 |
[V:2]A,=FAF AFAF AFAF |
[V:3]D2D2 D2D2 D2D2 |
[V:4]D4 =F4 A4 |
[V:1]z12 |
[V:2]CEAE AEAE AEAE |
[V:3]C2C2 C2C2 C2C2 |
[V:4]A4 >G4 F2E2 |
[V:1]z^dfe dc'ba gfed |
[V:2]B,FAF AFAF AFAF |
[V:3]B,2B,2 B,2B,2 B,2B,2 |
[V:4]^D4 F4 A4 |
[V:1]z^d'e'b agfe ^defe |
[V:2]B,EGE GEGE GEGE |
[V:3]E,2E,2 E,2E,2 E,2E,2 |
[V:4]G2G2 G2G2 G2G2 |
[V:1]zde=f gabc' d'e'=f'd' |
[V:2]G,D=FD FDFD FDG,F |
[V:3]B,2B,2 B,2B,2 B,2B,2 |
[V:4]G2=F2 F4 F4 |
[V:1]zd'e'b c'g=fe dcBc |
[V:2]G,CEC ECEC ECEC |
[V:3]C2C,2 C,2C,2 C,2C,2 |
[V:4]=F2E2 E4 E4 |
[V:1]zBcd ef^ga bc'd'b |
[V:2]B,DED B,DED B,DED |
[V:3]^G,2G,2 G,2G,2 G,2G,2 |
[V:4]E2D2 D4 D4 |
[V:1]zbc'^g aedc BA^GA |
[V:2]A,CEC A,CEC A,CEC |
[V:3]A,2A,2 A,2A,2 A,2A,2 |
[V:4]D2C2 C4 E4 |
[V:1]zABc defg abc'a |
[V:2]A,CDC A,CDC A,CDC |
[V:3]F,2F,2 F,2F,2 F,2F,2 |
[V:4]E2D2 D4 C4 |
[V:1]zabf gdcB AGFG |
[V:2]G,B,DB, G,B,DB, G,^CEG |
[V:3]G,2G,2 G,2G,2 E,2E,2 |
[V:4]C2B,2 B,4 ^C4 |
[V:1]F4 z6 F2 |
[V:2]DDDD FDDD CDDD |
[V:3]D,4 z8 |
[V:4]D4 z8 |
[V:1]G2A2 B2c2 d2B2 |
[V:2]B,DA,D G,DA,D B,DG,D |
[V:3]z12 |
[V:4]z12 |
[V:1]A4 z6 F2 |
[V:2]DDDD FDDD CDDD |
[V:3]D,4 z8 |
[V:4]D,,4 z8 |
[V:1]G2A2 B2c2 d2B2 |
[V:2]B,DA,D G,DA,D B,DG,D |
[V:3]z12 |
[V:4]z12 |
[V:1]A4 z8 |
[V:2]DDDD FDDD DDDD |
[V:3]D,4 z8 |
[V:4]D,,4 z8 |
[V:1]D4 c4 B4 |
[V:2]DDDD DDDD DDDD |
[V:3]z4 F,4 G,4 |
[V:4]D,F,A,F, A,F,A,F, D,G,B,G, |
[V:1]D4 f4 g4 |
[V:2]DDDD DDDD DDDD |
[V:3]z4 D,4 G,4 |
[V:4]D,A,CA, CA,CA, D,G,B,G, |
[V:1]D4 c4 B4 |
[V:2]DDDD DDDD DDDD |
[V:3]z4 F,4 G,4 |
[V:4]D,F,A,F, A,F,A,F, D,G,B,G, |
[V:1]D4 f4 g4 |
[V:2]DDDD DDDD DDDD |
[V:3]z4 D,4 G,4 |
[V:4]D,A,CA, CA,CA, D,G,B,G, |
[V:1]z^deB c^GA^g aebc' |
[V:2]E2>^G2 A4 z4 |
[V:3]C,4 z8 |
[V:4]C4 z8 |
[V:1]z^cdA BFGf gcd^a |
[V:2]D2>F2 G4 z4 |
[V:3]B,4 z8 |
[V:4]B,4 z8 |
[V:1]bfg^c' d'^abf g^cdg |
[V:2]z8 z3d |
[V:3]z8 z3G |
[V:4]z8 z3B,, |
[V:1]e2dc B4 A4 |
[V:2]c2BA G4 F4 |
[V:3]G4 D4 D4 |
[V:4]C,4 D,4 D,4 |
[V:1]g8- ged^c |
[V:2]GABF G^DEB, ^CEFG |
[V:3]B,8 A,4 |
[V:4]E,12 |
[V:1]e4 dDFA cdfa |
[V:2]G4 F2z6 |
[V:3]A,4- A,2z6 |
[V:4]D,4 D,,2z6 |
[V:1](3:2:2c'4-c'/ba gfed c|
[V:2]z4 A8 |
[V:3]z4 D8 |
[V:4]z4 D,8 |
[V:1]B12 |
[V:2]G12 |
[V:3]D12 |
[V:4]zF,G,D, C,B,,A,,G,, F,,G,,A,,G,, |
[V:1]g12 |
[V:2]B12 |
[V:3]G,8 E4 |
[V:4]z^D,E,B,, A,,G,,F,,E,, ^D,,E,,F,,E,, |
[V:1]e12 |
[V:2]c12 |
[V:3]C8 A4 |
[V:4]zC,D,E, F,G,A,B, CB,A,G, |
[V:1]d8- dfge |
[V:2]cBAG FEDC B,2B2 |
[V:3]AGFE DCB,A, G,2G2 |
[V:4]F,8 G,4 |
[V:1]d8 (3def(3gfe |
[V:2]cBAG FEDC B,2B2 |
[V:3]AGFE DCB,A, G,2G2 |
[V:4]F,8 G,4 |
[V:1]d8- dGgd |
[V:2]c8 B2G2 |
[V:3]A8 G2B,2 |
[V:4]F,G,A,B, CDEF G2G2 |
[V:1]eGge dBAG FGgd |
[V:2]G,4 z8 |
[V:3]C4 B,4 z2B,2 |
[V:4]G12 |
[V:1]eGge dBAG FGdD |
[V:2]z8 z2B,2 |
[V:3]C4 B,4 z2B,2 |
[V:4]G8 z2B,,2 |
[V:1]^DE=F^F GA_B=B c^cd^d |
[V:2]C4 z8 |
[V:3]C4 z8 |
[V:4]C,4 z8 |
[V:1]e4 z4 e3e |
[V:2]z8 c3c |
[V:3]z12 |
[V:4]z12 |
[V:1]e4 z4 A,3C |
[V:2]c4 z4 F3A |
[V:3]z8 (3C,F,A,(3CA,F, |
[V:4]z8 D,,4 |
[V:1]B,4 z4 A,3B,/C/ |
[V:2]G4 z4 F3G/A/ |
[V:3]G,G,G,G, B,G,G,G, (3C,F,A,(3CA,F, |
[V:4]G,,4 z4 D,,4 |
[V:1]B,4 z4 A,3C |
[V:2]G4 z4 c3A, |
[V:3]G,G,G,G, B,G,G,G, (3C,F,A,(3CA,F, |
[V:4]G,,4 z4 D,,4 |
[V:1]C4 B,2z6 |]
[V:2]A,4 G,2z6 |]
[V:3]F,4 G,2z6 |]
[V:4]G,,4- G,,2z6 |]

